source/img/sprite/map.svg

<svg width="25" height="25" viewBox="0 0 25 25" fill="none" xmlns="http://www.w3.org/2000/svg">
<g clip-path="url(#clip0_809_690)">
<rect width="25" height="25" fill="white"/>
<path d="M24.1699 22.2803V6.70123C24.1818 6.44571 23.9843 6.22897 23.7288 6.2171C23.6744 6.21456 23.6199 6.22168 23.5679 6.23812V6.26127L21.4839 6.91426C21.7021 6.33016 21.8316 5.71665 21.8683 5.09423C21.8683 2.28077 19.5875 0 16.774 0C13.9606 0 11.6798 2.28077 11.6798 5.09423C11.7123 5.68754 11.8325 6.27279 12.0364 6.8309L8.59086 5.59902C8.55086 5.5941 8.51045 5.5941 8.47045 5.59902H8.4334C8.37788 5.60001 8.32295 5.61101 8.27131 5.63144L1.12549 8.41011C0.960683 8.47281 0.845774 8.62361 0.829102 8.79913V16.246V24.3967C0.829854 24.6525 1.03779 24.8592 1.2936 24.8585C1.35016 24.8583 1.4062 24.8478 1.45893 24.8274L8.44266 22.1229L16.4082 24.9756C16.5043 25.0081 16.6084 25.0081 16.7046 24.9756L23.8458 22.7434C24.0464 22.6806 24.1796 22.4904 24.1699 22.2803ZM16.774 0.926224C19.076 0.926224 20.9421 2.79228 20.9421 5.09423C20.9421 6.905 18.2236 11.9066 16.774 14.3565C15.3245 11.8881 12.606 6.88184 12.606 5.09423C12.606 2.79228 14.4721 0.926224 16.774 0.926224ZM23.2576 21.9608L17.0241 23.9105V20.3769C17.0241 20.1212 16.8168 19.9138 16.561 19.9138C16.3053 19.9138 16.0979 20.1212 16.0979 20.3769V23.8781L8.90114 21.3032V18.3392C8.90114 18.0835 8.69378 17.8761 8.43803 17.8761C8.18228 17.8761 7.97492 18.0835 7.97492 18.3392V21.3032L1.75533 23.7252V16.5655L4.0431 15.6393C4.28791 15.5652 4.42627 15.3067 4.35217 15.0618C4.27807 14.817 4.01954 14.6787 3.77473 14.7528C3.74914 14.7605 3.72425 14.7705 3.70034 14.7825L1.75527 15.5652V9.11868L7.97486 6.71049V8.09983C7.97486 8.35558 8.18222 8.56294 8.43797 8.56294C8.69373 8.56294 8.90108 8.35558 8.90108 8.09983V6.69197L12.4532 7.96553C13.5923 10.5687 14.9027 13.0936 16.3757 15.5235C16.5083 15.7422 16.7931 15.8119 17.0119 15.6793C17.0755 15.6407 17.129 15.5872 17.1676 15.5235C18.6334 13.1079 19.9391 10.5985 21.0763 8.01184L23.2437 7.33106L23.2576 14.9215L20.9096 15.4911C20.6538 15.5218 20.4714 15.754 20.502 16.0098C20.5327 16.2655 20.765 16.448 21.0207 16.4173C21.0577 16.4218 21.0949 16.4218 21.1319 16.4173L23.2576 15.8986V21.9608H23.2576Z" fill="#2D383F"/>
<path d="M16.7561 2.40332C15.2701 2.40332 14.0654 3.60799 14.0654 5.094C14.0654 6.58001 15.2701 7.78468 16.7561 7.78468C18.2411 7.78213 19.4442 6.57897 19.4468 5.094C19.4468 3.60799 18.2421 2.40332 16.7561 2.40332ZM16.7561 6.85846C15.7899 6.84584 15.0126 6.06028 15.0102 5.094H14.9917C14.9917 4.1195 15.7816 3.32954 16.7561 3.32954C17.7306 3.32954 18.5206 4.1195 18.5206 5.094C18.5206 6.0685 17.7306 6.85846 16.7561 6.85846Z" fill="#2D383F"/>
<path d="M10.6981 13.9677V13.9816L8.45661 13.0137C8.34251 12.9661 8.21411 12.9661 8.10001 13.0137L6.20589 13.7778C5.96802 13.8738 5.85294 14.1443 5.94886 14.3822C6.04478 14.6201 6.31536 14.7352 6.55322 14.6392L8.26673 13.9492L10.3276 14.8199C10.3861 14.8448 10.4492 14.8574 10.5128 14.8569C10.7686 14.859 10.9776 14.6534 10.9797 14.3976C10.9812 14.2106 10.8701 14.041 10.6981 13.9677Z" fill="#2D383F"/>
<path d="M18.269 16.6161C18.2 16.393 17.9757 16.2562 17.7457 16.2969L17.7504 16.2599L16.6018 16.5377L14.6568 15.6949C14.4215 15.5926 14.1478 15.7004 14.0455 15.9357C13.9432 16.171 14.051 16.4447 14.2863 16.547L16.3703 17.4732C16.4288 17.4982 16.4919 17.5108 16.5555 17.5103H16.6667L17.9634 17.1954C18.2077 17.1198 18.3445 16.8604 18.269 16.6161Z" fill="#2D383F"/>
</g>
</svg>

<svg width="25" height="25" fill="none" xmlns="http://www.w3.org/2000/svg"><g clip-path="url(#clip0_809_690)"><path fill="#fff" d="M0 0h25v25H0z"/><path d="M24.17 22.28V6.7a.46.46 0 0 0-.6-.46v.02l-2.09.65c.22-.58.35-1.2.39-1.82a5.1 5.1 0 0 0-10.19 0c.03.6.15 1.18.36 1.74L8.59 5.6a.5.5 0 0 0-.12 0h-.04a.46.46 0 0 0-.16.03L1.13 8.41a.46.46 0 0 0-.3.39V24.4a.46.46 0 0 0 .63.43l6.98-2.7 7.97 2.85c.1.03.2.03.3 0l7.14-2.24c.2-.06.33-.25.32-.46ZM16.77.93c2.3 0 4.17 1.86 4.17 4.16 0 1.82-2.72 6.82-4.17 9.27-1.45-2.47-4.16-7.48-4.16-9.27 0-2.3 1.86-4.16 4.16-4.16Zm6.49 21.03-6.24 1.95v-3.53a.46.46 0 0 0-.92 0v3.5L8.9 21.3v-2.96a.46.46 0 0 0-.93 0v2.96l-6.21 2.43v-7.16l2.28-.93a.46.46 0 1 0-.34-.86l-1.94.79V9.12L7.97 6.7V8.1a.46.46 0 0 0 .93 0V6.7l3.55 1.27a64.32 64.32 0 0 0 3.93 7.55.46.46 0 0 0 .79 0 64.59 64.59 0 0 0 3.9-7.5l2.17-.69.02 7.6-2.35.56a.47.47 0 0 0 .11.93h.11l2.13-.52v6.06Z" fill="#2D383F"/><path d="M16.76 2.4a2.7 2.7 0 1 0 0 5.38 2.7 2.7 0 0 0 0-5.38Zm0 4.46A1.77 1.77 0 0 1 15 5.09h-.02a1.76 1.76 0 1 1 1.77 1.77ZM10.7 13.97v.01l-2.24-.97a.46.46 0 0 0-.36 0l-1.9.77a.46.46 0 0 0 .35.86l1.72-.7 2.06.88c.06.02.12.04.18.04a.46.46 0 0 0 .19-.9ZM18.27 16.62a.46.46 0 0 0-.52-.32v-.04l-1.15.28-1.94-.85a.46.46 0 0 0-.37.86l2.08.92c.06.03.12.04.19.04h.1l1.3-.31a.46.46 0 0 0 .3-.58Z" fill="#2D383F"/></g></svg>
